X:1
T:The Rose-bud March
T:The  Rose-bud  March.
T:SCOTT   JOPLIN.
T:Respectfully dedicated to my friend Tom Turpin.
T:Public Domain
T:Public Domain
T:Public Domain
C:Scott Joplin
Z:Public Domain
%%score { ( 1 3 ) | 2 }
L:1/8
Q:1/4=120
M:6/8
K:G
V:1 treble nm="Piano" snm="Pno."
V:3 treble 
V:2 bass 
V:1
"^Tempo di Marcia." (d_dc B_BA) | (_AGF =FE_E) | (D^DE FE_E) | D z z !^![DFAd] z D |:!mf! FED ABc | %5
 Bz[GBe] [GBe]2 e | dec BcA | Gz[GBe] [GBe]2 G | FED ABc | Bz[GBe] [GBe]2 [Bd^e] | (fed) (^cde) | %11
 [Fd]3- [Fd]2 D | FED ABc | Bz[GBe] [GBe]2 e | dec BcA | Gz[GBe] [GBe]2 (f/g/) | [cea]3 (gec) | %17
 Bze dBG | FdA cBA |1 G2 D DDD :|2 G2 [Dd] [Dd][Dd][Dd] |:!f! [Ece]3 [^D^d]2 [Ece] | %22
 [cfc']3 [Bb]2 [Afa] | [Bgb]2 [dbd'] [dbd']3- | [dbd']3 [Dd]2 [^D^d] | [Ece]3 [^D^d]2 [Ece] | %26
 [cfc']3 [dfd']2 [cfc'] | [Bgb]6- | [Bgb]3 [Dd]2 [^D^d] | [E^Ge]3 [=F=f]2 [EGe] | [^Ge^g]3 [Beb]3 | %31
 [cec']2 [Beb] [Aea]3- | [Aea]2 [gg'] [ff']2 [ee'] | [dd']2 [^c^c'] [dd']2 [ee'] | %34
 [^cgb]3 [=cfa]3 |1 [Bg]6- | [Bg]2 [Dd] [Dd][Dd][Dd] :|2 [Bg]6- | [Bg]2 z z3 |: %39
[K:C]!p! [Ge]3 [EG]3 | [^D^F]3 (B2 A) | [EG]3 [Ec]3- | [Ec]3 [_Bc]3 | [Ac]3 [FA]3 | [Af]3 [FA]3 | %45
 G6- | G2 z [Gg] z z | [Ge]3 [EG]3 | [^D^F]3 (B2 A) | [EG]3 [Ec]3- | [Ec]3 c3 | B3 G3 | A3 D3 | %53
 [B,G]6- | [B,G]2 z [Gg]3 | [Ge]3 [EG]3 | [^D^F]3 (B2 A) | [EG]3 [Ec]3- | [Ec]3 [EG]3 | %59
 [FA]3 [Ac]3 | [ABd]3 [AB^d]3 | [^GBe]6- | [GBe]3 e3 | [A^ca]3 [Acg]3 |!<(! [A^cf]3 [Gce]3!<)! | %65
!<(! [FAd]3 [Adf]3!<)! |!f!!<(! [c^d^fc']6!<)! |!mf! [ceg]3 [Gce]3 | [FBd]3- [FBd]2 [FG] ||1 %69
 [Ec]6- | [Ec]2 z [GBg]3 :|2 [Ec]6- | [Ec]2 z [cec'] z z || E2 ^D (EGE) | D2 D (BGE) | %75
 D2 A (DE^F) | G2 z z z D |:[K:G]!mf! FED ABc | Bz[GBe] [GBe]2 e | dec BcA | Gz[GBe] [GBe]2 G | %81
 FED ABc | Bz[GBe] [GBe]2 [Bd^e] | (fed) (^cde) | [Fd]3- [Fd]2 D | FED ABc | Bz[GBe] [GBe]2 e | %87
 dec BcA | Gz[GBe] [GBe]2 (f/g/) | [cea]3 gec | Bze dBG | FdA cBA |1 G2 D DDD :|2 %93
 G2 z !^![GBg] z z!fine! |] %94
V:2
 (D_DC B,_B,A,) | (_A,G,F, =F,E,_E,) | (D,^D,E, F,E,_E,) | D, z z !^![D,,D,] z z |: %4
 A,,z[D,F,C] D,,z[D,F,C] | G,,z[D,G,B,] D,,z[D,G,B,] | F,,z[D,A,C] D,,z[D,F,C] | %7
 G,,z[D,G,B,] [D,G,B,]2 [D,G,B,] | A,,z[D,F,C] D,,z[D,F,C] | G,,z[D,G,B,] [D,G,B,]2 [^G,,^G,] | %10
 [A,,A,]2 [F,A,D] A,,2 [A,^C] | [D,A,D]2 [A,,A,] [D,,D,] z z | A,,z[D,F,C] D,,z[D,F,C] | %13
 G,,z[D,G,B,] D,,z[D,G,B,] | F,,z[D,A,C] D,,z[D,F,C] | G,,z[D,G,B,] [D,G,B,]2 z | %16
 C,2 [E,A,C] [E,A,C]2 [E,A,C] | D,z[G,B,] B,,z[D,G,B,] | A,,z[D,F,C] D,,z[D,F,C] |1 %19
 [G,B,]2 z z3 :|2 [G,B,]2 z z3 |: C,2 [E,A,C] [E,A,C]2 [E,A,C] | A,,2 [D,F,C] D,,2 [D,F,C] | %23
 G,,2 [D,G,B,] [D,G,B,]2 [D,G,B,] | G,,2 [D,G,B,] B,,3 | C,2 [E,A,C] [E,A,C]2 [E,A,C] | %26
 A,,2 [D,F,C] D,,2 [D,F,A,] | (G,,D,G, B,G,D,) | G,,3 [G,,G,]2 [=F,,=F,] | %29
 [E,,E,]2 [E,B,D] ^G,,2 [E,B,D] | B,,2 [E,B,D] [^G,,^G,]2 [E,B,D] | [A,,A,]2 [B,,B,] [C,C]3 | %32
 ^C,2 [E,G,^A,] [E,G,A,]2 [E,G,A,] | D,2 [G,B,] B,,2 [D,G,B,] | A,,2 [E,G,A,^C] D,,2 [D,F,A,=C] |1 %35
 G,,2 D, E,D,B,, | G,,2 z z3 :|2 G,,2 D, E,D,B,, | G,,2 =F, E,2 D, |: %39
[K:C] C,2 [E,G,C] C,2 [E,G,C] | C,2 [^F,A,C] C,2 [F,A,C] | C,2 [E,G,C] G,,2 [E,G,C] | %42
 C,2 [E,G,C] G,,2 [E,G,C] | F,,2 [F,A,C] C,2 [F,A,C] | A,,2 [F,A,C] F,,2 [F,A,C] | %45
 C,2 [E,G,C] ^C,2 [E,G,^A,] | [D,G,B,]2 z [G,,G,] z z | C,2 [E,G,C] C,2 [E,G,C] | %48
 C,2 [^F,A,C] C,2 [F,A,C] | C,2 [E,G,C] G,,2 [E,G,C] | E,2 [G,C] _E,2 [G,C] | %51
 D,2 [G,B,] B,,2 [D,G,B,] | D,2 [^F,A,C] D,2 [F,A,C] | G,,B,,D, G,D,B,, | G,,2 z [G,,G,]3 | %55
 C,2 [E,G,C] C,2 [E,G,C] | C,2 [^F,A,C] C,2 [F,A,C] | C,2 [E,G,C] G,,2 [E,G,C] | %58
 C,2 [E,G,C] [E,G,C]2 [E,G,C] | F,,2 [F,A,C] [F,A,C]2 [F,A,C] | [F,,F,]3 [F,,F,]3 | %61
 [E,,E,]^G,,B,, E,B,,G,, | E,,2 z z3 | E,2 [G,A,^C] A,,2 [G,A,C] | ^C,2 [G,A,^C] A,,2 [G,A,C] | %65
 D,2 [F,A,D] [A,,A,]2 [F,A,D] |!>(! [_A,,_A,]6!>)! | [G,,G,]2 [E,G,C] [E,G,C]2 [E,G,C] | %68
 G,,2 [F,G,B,] D,2 [F,G,B,] ||1 C,E,G, A,G,E, | C,2 z [G,,G,]3 :|2 C,E,G, A,G,E, | %72
 C,2 z [C,,C,] z z || [C,E,G,C]3 [^C,E,G,^A,]3 | [D,G,B,]3 [D,G,B,]3 | [D,^F,A,C]3 [D,F,A,C]3 | %76
 G,,2 [D,G,B,] D,,2 [D,G,B,] |:[K:G] A,,z[D,F,C] D,,z[D,F,C] | G,,z[D,G,B,] D,,z[D,G,B,] | %79
 F,,z[D,A,C] D,,z[D,F,C] | G,,z[D,G,B,] [D,G,B,]2 [D,G,B,] | A,,z[D,F,C] D,,z[D,F,C] | %82
 G,,z[D,G,B,] [D,G,B,]2 [^G,,^G,] | [A,,A,]2 [F,A,D] A,,2 [A,^C] | [D,A,D]2 [A,,A,] [D,,D,] z z | %85
 A,,z[D,F,C] D,,z[D,F,C] | G,,z[D,G,B,] D,,z[D,G,B,] | F,,z[D,A,C] D,,z[D,F,C] | %88
 G,,z[D,G,B,] [D,G,B,]2 z | C,2 [E,A,C] [E,A,C]2 [E,A,C] | D,z[G,B,] B,,z[D,G,B,] | %91
 A,,z[D,F,C] D,,z[D,F,C] |1 [G,B,]2 z z3 :|2 [G,B,]2 z !^![G,,G,] z z |] %94
V:3
 x6 | x6 | x6 | x6 |: x6 | x6 | x6 | x6 | x6 | x6 | [Ad]3 G2 G | x6 | x6 | x6 | x6 | x6 | x6 | x6 | %18
 x6 |1 x6 :|2 x6 |: x6 | x6 | x6 | x6 | x6 | x6 | x6 | x6 | x6 | x6 | x6 | x6 | x6 | x6 |1 x6 | %36
 x6 :|2 x6 | x6 |:[K:C] x6 | x3 ^D3 | x6 | x6 | x6 | x6 | E3 E3 | F2 x x3 | x6 | x3 ^D3 | x6 | x6 | %51
 x6 | x6 | x6 | x6 | x6 | x3 ^D3 | x6 | x6 | x6 | x6 | x6 | x6 | x6 | x6 | x6 | x6 | x6 | x6 ||1 %69
 x6 | x6 :|2 x6 | x6 || x6 | x6 | x6 | x6 |:[K:G] x6 | x6 | x6 | x6 | x6 | x6 | [Ad]3 G2 G | x6 | %85
 x6 | x6 | x6 | x6 | x6 | x6 | x6 |1 x6 :|2 x6 |] %94

